X: 34127
T: Reel Du Chevreuil
R: reel
M: 4/4
K: Gmajor
E,F,|:G,F,G,A, B,A,G,B,|CB,CD EDCE|DEFG AGFA|1 GABG DCB,A,:|2 GABA Gdef||
|:gega gedB|cBcd cBAG|FGAG FDEF|1 GFGA Bdef:|2 GABA GEDB,||

